X:1
T:Title
%%score { ( 1 2 ) | ( 3 4 5 ) }
L:1/8
M:4/4
K:Eb
V:1 treble nm="Grand Piano"
V:2 treble 
V:3 bass 
V:4 bass 
V:5 bass 
V:1
 z4 z2[Q:1/4=100] z F | G3 A G>F G>[FA] | [GB]6 z F | G2 G2 GA/G/ F>E |[M:3/4] [DF]6 | %5
[M:1/4] [EG]A |[M:4/4] [EGB]3 [EAc] .[EGB]>B, A>B | [Ec]6 [Ec]2 | z4 .B2 z2 |[M:3/4] [G,E]6 | %10
[M:1/4] [B,EG]2 |[M:4/4] [DF]<[DF] [DF]>[DF] [DF]2 [DF]2 | G<G G>G G2 [B,EG]2 | %13
 [A,EA]2 [Ec]2 B<G F<E |[M:3/4] F6 |[M:1/4] GA |[M:4/4] B<B B>B B2 B2 |[M:9/8] c<cc- c/d/ e2- edc | %18
[M:4/4] [EB]2 [EB]2 .B2 z z/ [A,DF]/ |[M:3/4] [G,E]6 |] %20
V:2
 z4 z2 E2 | x8 | z4 z2 E2 | x8 |[M:3/4] x6 |[M:1/4] x2 |[M:4/4] z4 z G z2 | x8 | %8
 [EB]2 [EB]2 D3- D/[A,DF]/ |[M:3/4] x6 |[M:1/4] x2 |[M:4/4] x8 | x8 | x8 |[M:3/4] [B,D]2 E<E D2 | %15
[M:1/4] x2 |[M:4/4] x8 |[M:9/8] z3 z3 z E2 |[M:4/4] z4 D4 |[M:3/4] x6 |] %20
V:3
 z4 z2 G,A, | [E,B,E]3 [E,CE] [E,B,E]>[E,B,D] [E,B,E]>[E,B,] | [E,E]6 G,A, | z4 .B,2 z2 | %4
[M:3/4] [B,,B,]6 |[M:1/4] z F |[M:4/4] z4 z E z2 | [A,,A,]6 [A,,A,]2 | %8
 [B,,G,]2 [B,,G,]2 z[K:treble] c/B/ A>[K:bass]B,, |[M:3/4] E,6 |[M:1/4] E,2 | %11
[M:4/4] [B,,B,]<[B,,B,] [B,,B,]>[B,,B,] [B,,B,]2 [B,,B,]2 | %12
 [E,B,E]<[E,B,E] [E,B,E]>[E,B,E] [E,B,E]2 E,>_D, | C,2 [A,,A,]2 [E,G,E]<[E,B,E] [E,A,B,]<[E,G,] | %14
[M:3/4] z2 C<C B,2 |[M:1/4] [E,B,E][E,A,E] | %16
[M:4/4] [E,G,E]<[E,G,E] [E,G,E]>[E,G,E] [E,G,E]2 [E,G,E]2 | %17
[M:9/8] [A,E]<[A,E][A,E]- [A,E]/[A,B,E]/ [A,CE]2- [A,CE] [A,,A,]2 | %18
[M:4/4] [B,,G,]2 [B,,G,]2 z[K:treble] c/B/ A>[K:bass]B,, |[M:3/4] E,6 |] %20
V:4
 z4 z2 E,2 | x8 | z4 z2 E,2 | [E,B,E]2 [E,B,E]2 [E,E]-[E,-CE-]/[E,-B,E-]/ [E,A,E]>[E,G,] | %4
[M:3/4] x6 |[M:1/4] [E,B,]2 |[M:4/4] E,3 E, z z/ E,/ [E,CE]>[E,G,E] | x8 | %8
 z4 [B,,F,]4[K:treble][K:bass] |[M:3/4] x6 |[M:1/4] x2 |[M:4/4] x8 | x8 | x8 |[M:3/4] B,,6 | %15
[M:1/4] x2 |[M:4/4] x8 |[M:9/8] x9 |[M:4/4] z4 [B,,F,]4[K:treble][K:bass] |[M:3/4] x6 |] %20
V:5
 x8 | x8 | x8 | x8 |[M:3/4] x6 |[M:1/4] x2 |[M:4/4] z4 E,2 z2 | x8 | x5[K:treble] x5/2[K:bass] x/ | %9
[M:3/4] x6 |[M:1/4] x2 |[M:4/4] x8 | x8 | x8 |[M:3/4] x6 |[M:1/4] x2 |[M:4/4] x8 |[M:9/8] x9 | %18
[M:4/4] x5[K:treble] x5/2[K:bass] x/ |[M:3/4] x6 |] %20

